X: 253
T: Hai wawa
%%abc-version 2.0
%%abcx-abcm2ps-target-version 5.9.1 (29 Sep 2008)
%%abc-creator hum2abc beta
%%abcx-conversion-date 2013/10/02 07:52:29
%%abc-edited-by Helmut Schaffrath
%%humdrum-veritas 2235874221
%%humdrum-veritas-data 3603873344
%%continueall 1
%%barnumbers 0
L: 1/16
M: 2/4
K: G
e2 e2 e2 d e [I:setbarnb 1]| 
f a f ed4 | 
e e2 g d2 d c | 
e d c BA4 | 
d2 d2 g2 e d | 
B A B dG4 | 
G2 G A d2 d F | 
E2> D2E4 |]  



